X: 25589
T: Marknadshambo
R: waltz
M: 3/4
K: Cmajor
G/|:G>c e2 d2|d>e c2c>G|G>A F2 E>F|A>G E>C G,2|
G>c e2 d2|d>e c2c>E|G>G A2B2|c2 c2 z2:|
K:G
|:d2 ^c>d ^c>d|e>c A3 G|F>e d3 F|G>A B>c d2|
d2 ^c>d ^c>d|e>c A3 G|F>e d3 F|G2 G2 z2:|
|:D>D G3F|E>E C3C|C>C F3E|D>D B,4|
d2 ^c>d ^c>d|e>c A3 G|F>e d3 F|G2 G2 z2:|

